src/24/actions/im-user-online.svg

<?xml version="1.0" encoding="UTF-8" standalone="no"?>
<svg
   xmlns:dc="http://purl.org/dc/elements/1.1/"
   xmlns:cc="http://creativecommons.org/ns#"
   xmlns:rdf="http://www.w3.org/1999/02/22-rdf-syntax-ns#"
   xmlns:svg="http://www.w3.org/2000/svg"
   xmlns="http://www.w3.org/2000/svg"
   xmlns:sodipodi="http://sodipodi.sourceforge.net/DTD/sodipodi-0.dtd"
   xmlns:inkscape="http://www.inkscape.org/namespaces/inkscape"
   viewBox="0 0 24 24"
   id="svg2"
   version="1.1"
   inkscape:version="0.91 r13725"
   sodipodi:docname="im-user-online.svg">
  <metadata
     id="metadata22">
    <rdf:RDF>
      <cc:Work
         rdf:about="">
        <dc:format>image/svg+xml</dc:format>
        <dc:type
           rdf:resource="http://purl.org/dc/dcmitype/StillImage" />
      </cc:Work>
    </rdf:RDF>
  </metadata>
  <defs
     id="defs20" />
  <sodipodi:namedview
     pagecolor="#ffffff"
     bordercolor="#666666"
     borderopacity="1"
     objecttolerance="10"
     gridtolerance="10"
     guidetolerance="10"
     inkscape:pageopacity="0"
     inkscape:pageshadow="2"
     inkscape:window-width="828"
     inkscape:window-height="480"
     id="namedview18"
     showgrid="false"
     inkscape:zoom="9.8333333"
     inkscape:cx="12"
     inkscape:cy="12"
     inkscape:window-x="0"
     inkscape:window-y="0"
     inkscape:window-maximized="0"
     inkscape:current-layer="svg2" />
  <path
     style="fill:#43be80"
     d="M 12 4 A 3.99999 4.00003 0 0 0 8 8 A 3.99999 4.00003 0 0 0 12 12 A 3.99999 4.00003 0 0 0 16 8 A 3.99999 4.00003 0 0 0 12 4 z M 12 5 A 3 3.00003 0 0 1 15 8 A 3 3.00003 0 0 1 12 11 A 3 3.00003 0 0 1 9 8 A 3 3.00003 0 0 1 12 5 z M 12 13 A 7.99995 8.00003 0 0 0 4.0722656 20 L 5.0800781 20 A 6.99996 7.00003 0 0 1 12 14 A 6.99996 7.00003 0 0 1 13 14.080078 L 13 13.070312 A 7.99995 8.00003 0 0 0 12 13 z M 16.5 13 A 3.5 3.5 0 0 0 13 16.5 A 3.5 3.5 0 0 0 16.5 20 A 3.5 3.5 0 0 0 20 16.5 A 3.5 3.5 0 0 0 16.5 13 z "
     id="path10" />
  <path
     style="fill:#ffffff;fill-rule:evenodd"
     d="M 18 15 L 16 17 L 15 16 L 14 17 L 16 19 L 19 16 L 18 15 z "
     id="path16" />
</svg>

<svg xmlns="http://www.w3.org/2000/svg" viewBox="0 0 24 24"><path d="M12 4a4 4 0 0 0-4 4 4 4 0 0 0 4 4 4 4 0 0 0 4-4 4 4 0 0 0-4-4zm0 1a3 3 0 0 1 3 3 3 3 0 0 1-3 3 3 3 0 0 1-3-3 3 3 0 0 1 3-3zm0 8a8 8 0 0 0-7.928 7H5.08A7 7 0 0 1 12 14a7 7 0 0 1 1 .08v-1.01a8 8 0 0 0-1-.07zm4.5 0a3.5 3.5 0 0 0-3.5 3.5 3.5 3.5 0 0 0 3.5 3.5 3.5 3.5 0 0 0 3.5-3.5 3.5 3.5 0 0 0-3.5-3.5z" fill="#43be80"/><path d="M18 15l-2 2-1-1-1 1 2 2 3-3-1-1z" fill="#fff" fill-rule="evenodd"/></svg>
